X:1
T:Title
%%score { 1 | 2 }
L:1/8
M:6/8
K:Ab
V:1 treble nm="Grand Piano"
V:2 bass 
V:1
 z3 z2[Q:1/4=84] [CE] | [CE][CF][CG] [CA][DB][=D_c] | [Ec]3 [Ec]2 E | EFG ABc | [Gd]3- [Gd]2 [GB] | %5
 [GB][Ac][Bd] [Bd][Ac][GB] | [Ac][Bd][_c=d] [=ce]2 c | BeG [=Dc][DB]D |[M:5/8] E-E- E3 |[M:1/8] E | %10
[M:3/4] B>A GG FG | A3 [CE]2 E | d>c B[EB] [EA]B | c4- cc | e>d c[Ec] [EB][EA] | F=E F [Fd]2 [FB] | %16
 AG Ac c>B |[M:5/8] [CA]-[CA]- [CA]3 |] %18
V:2
 z3 z2 [A,,A,] | [A,,A,][A,,A,][A,,A,] [A,,E,][A,,E,][A,,F,] | [A,,A,]3 [A,,A,]2 [C,A,] | %3
 [E,G,D][E,A,D][E,B,D] [E,CE][E,G,E][E,A,E] | [E,B,]3- [E,B,]2 [E,E] | %5
 [E,E][E,E][E,E] [E,E][E,E][E,E] | [A,E][A,E][A,F] [A,E]2 [=A,E_G] | %7
 [B,EG][B,G][K:bass][B,E] [B,,A,][B,,A,][B,,A,B,] |[M:5/8] [E,G,B,]-[E,G,B,]- [E,G,B,]3 | %9
[M:1/8] E, |[M:3/4] [E,G,D]>[E,A,D] [E,B,D][E,B,D] [E,A,D][E,B,D] | [A,C]3 [A,,A,]2 [A,C] | %12
 [E,B,E]>[E,A,E] [E,G,E][D,G,] [C,A,][E,G,E] | [A,E]4- [A,E][A,E] | %14
 [A,CA]>[A,B,E][K:bass] [A,E][A,,A,] [B,,G,][C,A,] | [D,A,D][D,A,D] [D,A,D] [D,B,]2 [D,B,] | %16
 [E,CE][E,B,D] [E,A,C][E,A,E] [E,G,E]>[E,G,D] |[M:5/8] [A,,A,]-[A,,A,]- [A,,A,]3 |] %18

